X:9022
T:La petite Jeannette
R:polka
A:Bourbonnais
O:France
M:2/4
L:1/8
Q:1/4=100
K:C
e/2g/2g/2g/2 e/2g/2g/2g/2|f/2e/2f/2g/2 ag|e/2g/2g/2g/2
e/2g/2g/2g/2
|1a/2g/2f/2d/2 cc:|2a/2g/2f/2d/2 c c/2d/2|
ef d/2c/2B/2c/2|dec>d|ef d/2c/2B/2c/2|dec>d|
ef d/2c/2B/2c/2|d/2c/2d/2e/2 c>d|eg a/2g/2f/2e/2 d/2c/2B/2d/2c2||


